!! 00025] TT[TB
!! Zh. CH. 1-3735, 591487), J 3076)
!!!OTL: Qing feng shou
!!!ARE: Asia, China,ÿSichuan, Xuanhan
!! Ethnic Group: Han
!! MM,
!!!SCT: C0913
!!!YEM: Copyright 1995, estate of Helmut Schaffrath.
**kern
*ICvox
*Ivox
!! Mixed meters:  2/4; 3/4
*M3/4
*k[]
*C:
{2dd
4gg
=1
*M2/4
8ee
8dd
8.dd
16ee
=2
16cc
16dd
4.cc}
=3
{16cc
32dd
32ee
4.dd
=4
2cc
=5
2a}
=6
{8.ee
16dd
8ee
16ee
16ee
=7
8.cc
16ee
4a}
=8
{8cc
16a
16cc
4ee
=9
2dd
=10
2a}
=11
{8.ee
16cc
8dd
8cc
=12
8.ee
16cc
4a}
=13
*M3/4
{8dd
8cc
4.cc
8a
=14
*M2/4
4.g
8a
=15
2cc
=16
2a}
=17
{8.cc
16dd
8cc
8a
=18
8g
8a
4f}
=19
{16a
16cc
16g
16a
8ee
8a
=20
2cc
=21
2a}
=22
*M3/4
{8.ee
16cc
4.dd
8cc
=23
8.ee
16cc
2a}
=24
{4.cc
8dd
4dd
=25
*M2/4
2cc
=26
2a}
=27
{8.ee
16dd
8ee
16ee
16ee
=28
8cc
8ee
4a}
=29
{8cc
16a
16cc
8ee
8ee
=30
2cc
=31
2a}
=32
*M3/4
{8g
8a
4.cc
8a
=33
16.a
32ee
8cc
2a}
=34
{8dd
4cc
8a
8g
8a
=35
*M2/4
2cc
=36
2a}
=37
{8gg
8cc
8cc
8dd
=38
8ee
16dd
16ee
8cc
8ee
=39
8.dd
16cc
4a}
=40
{16a
16cc
16g
16a
8ee
8a
=41
2cc
=42
2a}
=43
{4cc
4cc
=44
4cc
[4ee
=45
2ee]}
=46
{8ee
16dd
16ee
4gg
=47
8cc
16dd
16cc
4a}
=48
{8ee
16dd
16ee
4gg
=49
8cc
16dd
16cc
4a}
=50
{4gg
4a
=51
4gg
4a
=52
8gg
8a
8gg
8a
=53
8gg
8a
8gg
8a}
=54
{8ee
[4.gg
=55
2gg]}
=56
{8.ee
16g
16dd
16ee
16cc
16a
=57
16.cc
32dd
16a
16cc
8ee
8a
=58
2cc
=59
2a}
==
!!!ONB: ESAC (Essen Associative Code) Database: CHINA
!!!AMT: irregular
!!!AIN: vox
!!!EED: Helmut Schaffrath
!!!EEV: 1.0
*-
!!!ONB: Tied note syntax fixed by Craig Sapp, 2004/05/03/
